actions/24/fcitx-handwriting-inactive.svg

<?xml version="1.0" encoding="UTF-8" standalone="no"?>
<svg
   width="24"
   height="24"
   version="1.1"
   id="svg9"
   sodipodi:docname="fcitx-handwriting-inactive.svg"
   inkscape:version="1.1.2 (0a00cf5339, 2022-02-04)"
   xmlns:inkscape="http://www.inkscape.org/namespaces/inkscape"
   xmlns:sodipodi="http://sodipodi.sourceforge.net/DTD/sodipodi-0.dtd"
   xmlns="http://www.w3.org/2000/svg"
   xmlns:svg="http://www.w3.org/2000/svg">
  <sodipodi:namedview
     id="namedview11"
     pagecolor="#1f1f1f"
     bordercolor="#666666"
     borderopacity="1.0"
     inkscape:pageshadow="2"
     inkscape:pageopacity="0"
     inkscape:pagecheckerboard="0"
     showgrid="false"
     inkscape:zoom="40.187235"
     inkscape:cx="12.0063"
     inkscape:cy="11.968975"
     inkscape:window-width="1596"
     inkscape:window-height="967"
     inkscape:window-x="0"
     inkscape:window-y="29"
     inkscape:window-maximized="1"
     inkscape:current-layer="g7" />
  <defs
     id="defs3">
    <style
       id="current-color-scheme"
       type="text/css">
   .ColorScheme-Text { color:#eeeeec; } .ColorScheme-Highlight { color:#367bf0; } .ColorScheme-NeutralText { color:#ffcc44; } .ColorScheme-PositiveText { color:#3db47e; } .ColorScheme-NegativeText { color:#dd4747; }
  </style>
  </defs>
  <g
     transform="translate(4,4)"
     id="g7">
    <path
       style="opacity:0.35;fill:currentColor"
       class="ColorScheme-Text"
       d="M 2,0 C 2,0 0,0 0,2 v 12 c 0,2 2,2 2,2 h 12 c 0,0 2,0 2,-2 V 2 C 16,0 14,0 14,0 Z m 9.611,2 c 0.182,0 0.363,0.0709 0.508,0.2109 l 1.67,1.67 c 0.28,0.28 0.28,0.7297 0,1.0097 L 12.381,6.2891 9.7109,3.6094 11.109,2.2109 C 11.249,2.0709 11.43,2 11.611,2 Z M 8.75,4.5703 11.42,7.25 4.9303898,13.739514 v 0 L 4.3156864,14 H 2.4504808 v 0 L 2,13.54835 v -1.866638 0 l 0.2679831,-0.629683 z"
       id="path5"
       sodipodi:nodetypes="cssccssccscsccccscccccccccccc" />
  </g>
</svg>

<svg xmlns="http://www.w3.org/2000/svg" width="24" height="24" version="1.1">
 <defs>
  <style id="current-color-scheme" type="text/css">
   .ColorScheme-Text { color:#eeeeec; } .ColorScheme-Highlight { color:#367bf0; } .ColorScheme-NeutralText { color:#ffcc44; } .ColorScheme-PositiveText { color:#3db47e; } .ColorScheme-NegativeText { color:#dd4747; }
  </style>
 </defs>
 <g transform="translate(4,4)">
  <path style="fill:currentColor;opacity:.35" class="ColorScheme-Text" d="M 2,0 C 2,0 0,0 0,2 V 14 C 0,16 2,16 2,16 H 14 C 14,16 16,16 16,14 V 2 C 16,0 14,0 14,0 Z M 11.611,2 C 11.793,2 11.974,2.0709 12.119,2.2109 L 13.789,3.8809 C 14.069,4.1609 14.069,4.6106 13.789,4.8906 L 12.381,6.2891 9.7109,3.6094 11.109,2.2109 C 11.249,2.0709 11.43,2 11.611,2 Z M 8.75,4.5703 11.42,7.25 4.6699,14 H 2 V 11.32 Z"/>
 </g>
</svg>
